X: 23
T: Orphan, The
Z: Em G
S: https://thesession.org/tunes/217#setting54277
R: jig
M: 6/8
L: 1/8
K: Emin
|:E3 EDB,|GFG AGA|B3 ABA|GEF EDB,|
A,3 EDB,|GFG AGA|B3 ABA|1 GED EGF:|2 GED Egf||
|:e2e dBA|GAB d3|c3 B3|AGE EDB,|
A,3 EDB,|GFG AGA|B3 ABA|1 GED Egf:|2 GED EGF||

%-------------------- TUNE SEPARATOR --------------------%

